front/assets/images/icone-contact-email.svg

<svg width="16" height="16" viewBox="0 0 16 16" fill="none" xmlns="http://www.w3.org/2000/svg">
<path fill-rule="evenodd" clip-rule="evenodd" d="M1.99992 2H13.9999C14.3681 2 14.6666 2.29848 14.6666 2.66667V13.3333C14.6666 13.7015 14.3681 14 13.9999 14H1.99992C1.63173 14 1.33325 13.7015 1.33325 13.3333V2.66667C1.33325 2.29848 1.63173 2 1.99992 2ZM13.3333 4.82533L8.04792 9.55867L2.66659 4.81067V12.6667H13.3333V4.82533ZM3.00725 3.33333L8.04059 7.77467L13.0013 3.33333H3.00725Z" fill="#0D0C21"/>
</svg>

<svg xmlns="http://www.w3.org/2000/svg" width="16" height="16" fill="none"><path fill="#0D0C21" fill-rule="evenodd" d="M2 2h12c.368 0 .667.298.667.667v10.666A.667.667 0 0 1 14 14H2a.667.667 0 0 1-.667-.667V2.667C1.333 2.298 1.632 2 2 2m11.333 2.825L8.048 9.56 2.667 4.81v7.856h10.666zM3.007 3.333l5.034 4.442L13 3.333z" clip-rule="evenodd"/></svg>
